X:515
T: Dillon's Other Breakfast
C: BB
R: reel
Q: 1/8=350
M: 4/4
L: 1/8
K: D
e|"Bm"dBAF "G"GBdB|"A"Aceg "D"fddc|"Bm"BAFE "D"DFAd |"Bm"fagf "A"e3A |
"D"fa (3a^ga "A"eAcA | "Bm"BcdB "D"ADFD | "C"EG=cG "D"Adfa |"A"gece "D"d3 :|
A| "C"=cBcd edcd | "A"eA^cA eAcA | "C"=c2 ec gcec |"A"(3efg ec "D"d3 A |
"C"=cG G2 "Bm"BF F2|"A"(3EFG AG "D"FD D2|"C"=CE (3EDE GE (3EDE|\
"A"GECE "D"D3 :|
